X:75
T:Rambling Pitchfork, The
S:The Session: https://thesession.org/tunes/89#setting55333
C:Traditional
R:jig
K:D
M:6/8
L:1/8
Q:1/4=113
|: "D"FFF AFF | dFF AFF | "G"G2G GBc | "A"ded cAG |
"D"F2F AFF | dFF AFF |"G"G2 G B2 B|"D"AFD D3 :|
|: d2 e f2d | "A"ecA ABc | "D"d2 e f2d | "D"faf "G"gfe |
"D"d2 e f2d | "A"ecA A2 A | "G"G2 G B2 B|"D"AFD D3 :|

